X:504
T:B504-  When Cannon are Roaring
Q:1/4=120
L:1/4
M:3/4
K:C
ccc|GEC|GGA|B3/2A/G|\
cBA|dBG|ced|[1 c3:|][2 c2||]c|\
ccd|ccd|ccd|ec2|\
g3/2f/e|dBG|ced|cc2|]

